X:96
T:Young Quaker. THO5.096, The
M:6/8
L:1/8
B:Thompson's Complete Collection of 200 Favourite Dances Vol.5
F:https://www.libraryofdance.org/manuals/1780c-Thompson-Compleat-5.pdf
%%titlefont Helvetica 22
%%subtitlefont Helvetica 16
%%tempofont Helvetica
%%barnumbers 1
%%MIDI program 73 % flute
Z:vmp. Peter Dunk 2024
Q:3/8=100
K:G
g2d ded|b2g g3|gfe dcB|ABG FED|
g2d ded|b2g g3|gfe dcB|AGF G3:|
|:dBd gbg|ece ac'a|gfe dcB|ABG FED|
dBd gbg|ece ac'a|gfe def|g3 G3:|
W:
W:The 1st Gent go round the 2nd, foot it and turn his Partner at top ./.
W:The 1st Lady does the same ./:
W:Cross over and half figure :/.
W:Right and Left :/:

